X: 20774
Q: "Very slow."
M: 3/4
L: 1/8
K: G
e3 d BG | DE G2 GA | B2 (cB)(A>G) | G4 G>A |\
e3 d BG | D2 G2 GA | B2 {c}B2 A>G | G4 |]


